

-- mi interlude
d3 
  $ jux rev
  $ (# pan rand)
  $ foldEvery [2,3,4,5,6] (1.75 <~) 
  $ (# bpf (range 300 2000 $ slow 2.7 tri))
  $ plyWith "<10 15 5 20>" ((|+ accelerate "-0.2") . (|* legato 0.9))
  $ slow 8 $ striate' "<128 256 64>" (range (1/30) (1/20) $ fast 3 $ sine ) $ n "[11,12,10]" # s "mi"
  # speed (range 0.9 1.1 $ shrand 839) # gain 0.9

  hush

  setcps (160/120/2)

asap $ s "pattonfull"

