

do 
  let pat = "<2 4 2 4 4 6 2 1 1>"
      times = "<10>"
      plyFunc = (# gain 0.7)
      period = 0
      superKick = "<0 1 1 0 0>"
      superHat = "<1 1 0>"
      muteKick = id
      muteHat = id
      synthFilter = 20
      bendUp = 0
      bendDown = 0
      kickHold = 0
      revFreq = 0
  d1 
    $ twoxbd pat times plyFunc superKick superHat synthFilter bendUp bendDown kickHold period muteKick muteHat revFreq





      hush